svg/fluentui-system-icons/ic_fluent_text_position_top_bottom_24_filled.svg

<svg width="24" height="24" viewBox="0 0 24 24" fill="none" xmlns="http://www.w3.org/2000/svg">
<path d="M2.75 4.75C2.75 4.19772 3.19772 3.75 3.75 3.75H20.25C20.8023 3.75 21.25 4.19772 21.25 4.75C21.25 5.30228 20.8023 5.75 20.25 5.75H3.75C3.19772 5.75 2.75 5.30228 2.75 4.75ZM2.75 18.75C2.75 18.1977 3.19772 17.75 3.75 17.75H20.25C20.8023 17.75 21.25 18.1977 21.25 18.75C21.25 19.3023 20.8023 19.75 20.25 19.75H3.75C3.19772 19.75 2.75 19.3023 2.75 18.75ZM9.75 11C9.75 9.75736 10.7574 8.75 12 8.75C13.2426 8.75 14.25 9.75736 14.25 11V15.75C14.25 16.3023 14.6977 16.75 15.25 16.75C15.8023 16.75 16.25 16.3023 16.25 15.75V11C16.25 8.65279 14.3472 6.75 12 6.75C9.65279 6.75 7.75 8.65279 7.75 11V15.75C7.75 16.3023 8.19772 16.75 8.75 16.75C9.30228 16.75 9.75 16.3023 9.75 15.75V11Z" fill="#212121"/>
</svg>

<svg xmlns="http://www.w3.org/2000/svg" width="24" height="24"><path d="M2.75 4.75a1 1 0 0 1 1-1h16.5a1 1 0 1 1 0 2H3.75a1 1 0 0 1-1-1Zm0 14a1 1 0 0 1 1-1h16.5a1 1 0 1 1 0 2H3.75a1 1 0 0 1-1-1Zm7-7.75a2.25 2.25 0 0 1 4.5 0v4.75a1 1 0 1 0 2 0V11a4.25 4.25 0 0 0-8.5 0v4.75a1 1 0 1 0 2 0V11Z"/></svg>
